!!!OTL: Kangri xiaochang
!!!ARE: Asia, China,ÿShandong Linyi
!! III, 349, 2)
!!!SCT: C1770
!!!YEM: Copyright 1995, estate of Helmut Schaffrath.
**kern
*ICvox
*Ivox
*M2/4
*k[b-]
*F:
{8dd
8dd
16dd
16cc
8a
=1
8cc
4cc
8ff
=2
16dd
16ff
16dd
16cc
16a
16cc
8dd
=3
2f}
=4
{8.dd
16ff
8cc
8dd
=5
8ff
16ff
16gg
8ff
16dd
16cc
=6
8a
16a
16cc
8dd
8ff
=7
8.cc
16dd
8cc
8a}
=8
{8cc
8d
8f
8g
=9
8a
8a
8.dd
16ff
=10
8cc
8g
8a
8g
=11
2f}
=12
{8a
16a
16a
16a
16g
8f
=13
8g
4.g}
=14
{16dd
16dd
16dd
16cc
16dd
16cc
8a
=15
2cc}
=16
{8.dd
16ff
8cc
8dd
=17
2ff}
=18
{2r
=19
8dd
16dd
16ff
16dd
16cc
8a
=20
8.cc
16dd
8cc
8a
=21
8cc
8d
8f
8g
=22
4a
8.dd
16ff
=23
8cc
8g
8a
8cc
=24
2ff}
==
!!!AGN: Xiaodiao, Shandong xiaoqu
!!!AMT: simple duple
!!!AIN: vox
!!!EED: Helmut Schaffrath
!!!EEV: 1.0
*-
